icons/modern/telescope.svg

<svg width="32" height="32" viewBox="0 0 32 32" fill="none" xmlns="http://www.w3.org/2000/svg">
<path d="M16 16V28.9844" stroke="url(#paint0_linear_18_25150)" stroke-width="1.4" stroke-linecap="round"/>
<path d="M16.5898 15.9219L25.7925 29.0313" stroke="url(#paint1_linear_18_25150)" stroke-width="1.4" stroke-linecap="round"/>
<path d="M16.5898 15.9219L25.7925 29.0313" stroke="url(#paint2_linear_18_25150)" stroke-width="1.4" stroke-linecap="round"/>
<path d="M16.5898 15.9219L25.7925 29.0313" stroke="url(#paint3_radial_18_25150)" stroke-width="1.4" stroke-linecap="round"/>
<path d="M16.5898 15.9219L25.7925 29.0313" stroke="url(#paint4_linear_18_25150)" stroke-width="1.4" stroke-linecap="round"/>
<path d="M15.41 15.9375L6.20737 29.0469" stroke="url(#paint5_linear_18_25150)" stroke-width="1.4" stroke-linecap="round"/>
<path d="M15.41 15.9375L6.20737 29.0469" stroke="url(#paint6_linear_18_25150)" stroke-width="1.4" stroke-linecap="round"/>
<g filter="url(#filter0_f_18_25150)">
<path d="M15.41 15.9219L6.20737 29.0313" stroke="url(#paint7_linear_18_25150)" stroke-width="0.4" stroke-linecap="round"/>
</g>
<rect x="15.3711" y="11.5625" width="1.25781" height="3.53125" fill="#251350"/>
<path d="M30.1633 12.3905C30.3047 12.0011 30.1037 11.5709 29.7144 11.4295L21.1461 8.31726L19.4526 12.9795L28.0209 16.0917C28.4102 16.2331 28.8405 16.0322 28.9819 15.6428L30.1633 12.3905Z" fill="url(#paint8_linear_18_25150)"/>
<path d="M30.1633 12.3905C30.3047 12.0011 30.1037 11.5709 29.7144 11.4295L21.1461 8.31726L19.4526 12.9795L28.0209 16.0917C28.4102 16.2331 28.8405 16.0322 28.9819 15.6428L30.1633 12.3905Z" fill="url(#paint9_linear_18_25150)"/>
<path d="M30.1633 12.3905C30.3047 12.0011 30.1037 11.5709 29.7144 11.4295L21.1461 8.31726L19.4526 12.9795L28.0209 16.0917C28.4102 16.2331 28.8405 16.0322 28.9819 15.6428L30.1633 12.3905Z" fill="url(#paint10_linear_18_25150)"/>
<path d="M26.1636 15.4172L27.8571 10.7549L29.7144 11.4295C30.1036 11.5709 30.3047 12.0012 30.1632 12.3905L28.9819 15.6429C28.8405 16.0322 28.4103 16.2332 28.0209 16.0918L26.1636 15.4172Z" fill="url(#paint11_linear_18_25150)"/>
<path d="M26.1636 15.4172L27.8571 10.7549L29.7144 11.4295C30.1036 11.5709 30.3047 12.0012 30.1632 12.3905L28.9819 15.6429C28.8405 16.0322 28.4103 16.2332 28.0209 16.0918L26.1636 15.4172Z" fill="url(#paint12_linear_18_25150)"/>
<path d="M26.1636 15.4172L27.8571 10.7549L29.7144 11.4295C30.1036 11.5709 30.3047 12.0012 30.1632 12.3905L28.9819 15.6429C28.8405 16.0322 28.4103 16.2332 28.0209 16.0918L26.1636 15.4172Z" fill="url(#paint13_radial_18_25150)"/>
<g filter="url(#filter1_f_18_25150)">
<rect x="21.802" y="10.1086" width="5.57599" height="0.787064" transform="rotate(20.0042 21.802 10.1086)" fill="#C9C2D2"/>
</g>
<path d="M2.81269 4.29685C3.45665 2.52398 5.41587 1.60881 7.18874 2.25276L22.8742 7.95013C22.9261 7.96898 22.9529 8.02635 22.9341 8.07826L20.6704 14.3104C20.6516 14.3623 20.5942 14.3891 20.5423 14.3703L4.85679 8.67289C3.08391 8.02894 2.16874 6.06972 2.81269 4.29685Z" fill="url(#paint14_linear_18_25150)"/>
<path d="M2.81269 4.29685C3.45665 2.52398 5.41587 1.60881 7.18874 2.25276L22.8742 7.95013C22.9261 7.96898 22.9529 8.02635 22.9341 8.07826L20.6704 14.3104C20.6516 14.3623 20.5942 14.3891 20.5423 14.3703L4.85679 8.67289C3.08391 8.02894 2.16874 6.06972 2.81269 4.29685Z" fill="url(#paint15_linear_18_25150)"/>
<g filter="url(#filter2_i_18_25150)">
<rect width="2.23438" height="5.39844" rx="1.11719" transform="matrix(4.37114e-08 -1 -1 -4.37114e-08 18.6992 16.4375)" fill="#431670"/>
</g>
<rect width="2.23438" height="5.39844" rx="1.11719" transform="matrix(4.37114e-08 -1 -1 -4.37114e-08 18.6992 16.4375)" fill="url(#paint16_radial_18_25150)"/>
<rect width="2.23438" height="5.39844" rx="1.11719" transform="matrix(4.37114e-08 -1 -1 -4.37114e-08 18.6992 16.4375)" fill="url(#paint17_radial_18_25150)"/>
<g filter="url(#filter3_f_18_25150)">
<rect x="9.73279" y="5.14282" width="13.073" height="0.787064" transform="rotate(20.0042 9.73279 5.14282)" fill="#C9C2D2"/>
</g>
<g filter="url(#filter4_i_18_25150)">
<path d="M8.07422 2.57983L5.74219 8.99995L4.85687 8.67277C3.08392 8.02882 2.16876 6.0696 2.81268 4.29673C3.45672 2.52385 5.41595 1.60868 7.18878 2.25264L8.07422 2.57983Z" fill="url(#paint18_radial_18_25150)"/>
</g>
<path d="M10.762 3.55061L7.48804 2.36145L5.15613 8.78159L8.42993 9.97073L10.762 3.55061Z" fill="url(#paint19_linear_18_25150)"/>
<path d="M10.762 3.55061L7.48804 2.36145L5.15613 8.78159L8.42993 9.97073L10.762 3.55061Z" fill="url(#paint20_linear_18_25150)"/>
<path d="M10.762 3.55061L7.48804 2.36145L5.15613 8.78159L8.42993 9.97073L10.762 3.55061Z" fill="url(#paint21_linear_18_25150)"/>
<g filter="url(#filter5_f_18_25150)">
<rect x="7.23193" y="4.09399" width="2.87406" height="1.51528" transform="rotate(20.0042 7.23193 4.09399)" fill="#7468B7"/>
</g>
<g filter="url(#filter6_f_18_25150)">
<rect x="27.6395" y="12.1924" width="2.09321" height="1.12338" transform="rotate(20.0042 27.6395 12.1924)" fill="#7266B6"/>
</g>
<defs>
<filter id="filter0_f_18_25150" x="5.60739" y="15.3219" width="10.4027" height="14.3094" filterUnits="userSpaceOnUse" color-interpolation-filters="sRGB">
<feFlood flood-opacity="0" result="BackgroundImageFix"/>
<feBlend mode="normal" in="SourceGraphic" in2="BackgroundImageFix" result="shape"/>
<feGaussianBlur stdDeviation="0.2" result="effect1_foregroundBlur_18_25150"/>
</filter>
<filter id="filter1_f_18_25150" x="20.5328" y="9.10864" width="7.50879" height="4.64709" filterUnits="userSpaceOnUse" color-interpolation-filters="sRGB">
<feFlood flood-opacity="0" result="BackgroundImageFix"/>
<feBlend mode="normal" in="SourceGraphic" in2="BackgroundImageFix" result="shape"/>
<feGaussianBlur stdDeviation="0.5" result="effect1_foregroundBlur_18_25150"/>
</filter>
<filter id="filter2_i_18_25150" x="12.8008" y="14.2031" width="5.89844" height="2.73438" filterUnits="userSpaceOnUse" color-interpolation-filters="sRGB">
<feFlood flood-opacity="0" result="BackgroundImageFix"/>
<feBlend mode="normal" in="SourceGraphic" in2="BackgroundImageFix" result="shape"/>
<feColorMatrix in="SourceAlpha" type="matrix" values="0 0 0 0 0 0 0 0 0 0 0 0 0 0 0 0 0 0 127 0" result="hardAlpha"/>
<feOffset dx="-0.5" dy="0.5"/>
<feGaussianBlur stdDeviation="0.5"/>
<feComposite in2="hardAlpha" operator="arithmetic" k2="-1" k3="1"/>
<feColorMatrix type="matrix" values="0 0 0 0 0.188235 0 0 0 0 0.129412 0 0 0 0 0.309804 0 0 0 1 0"/>
<feBlend mode="normal" in2="shape" result="effect1_innerShadow_18_25150"/>
</filter>
<filter id="filter3_f_18_25150" x="8.46356" y="4.14282" width="14.5535" height="7.21167" filterUnits="userSpaceOnUse" color-interpolation-filters="sRGB">
<feFlood flood-opacity="0" result="BackgroundImageFix"/>
<feBlend mode="normal" in="SourceGraphic" in2="BackgroundImageFix" result="shape"/>
<feGaussianBlur stdDeviation="0.5" result="effect1_foregroundBlur_18_25150"/>
</filter>
<filter id="filter4_i_18_25150" x="2.60657" y="2.04651" width="5.46765" height="6.95349" filterUnits="userSpaceOnUse" color-interpolation-filters="sRGB">
<feFlood flood-opacity="0" result="BackgroundImageFix"/>
<feBlend mode="normal" in="SourceGraphic" in2="BackgroundImageFix" result="shape"/>
<feColorMatrix in="SourceAlpha" type="matrix" values="0 0 0 0 0 0 0 0 0 0 0 0 0 0 0 0 0 0 127 0" result="hardAlpha"/>
<feOffset/>
<feGaussianBlur stdDeviation="0.25"/>
<feComposite in2="hardAlpha" operator="arithmetic" k2="-1" k3="1"/>
<feColorMatrix type="matrix" values="0 0 0 0 0.713726 0 0 0 0 0.780392 0 0 0 0 0.85098 0 0 0 1 0"/>
<feBlend mode="normal" in2="shape" result="effect1_innerShadow_18_25150"/>
</filter>
<filter id="filter5_f_18_25150" x="6.11356" y="3.49399" width="4.41906" height="3.6071" filterUnits="userSpaceOnUse" color-interpolation-filters="sRGB">
<feFlood flood-opacity="0" result="BackgroundImageFix"/>
<feBlend mode="normal" in="SourceGraphic" in2="BackgroundImageFix" result="shape"/>
<feGaussianBlur stdDeviation="0.3" result="effect1_foregroundBlur_18_25150"/>
</filter>
<filter id="filter6_f_18_25150" x="26.6552" y="11.5924" width="3.5512" height="2.97173" filterUnits="userSpaceOnUse" color-interpolation-filters="sRGB">
<feFlood flood-opacity="0" result="BackgroundImageFix"/>
<feBlend mode="normal" in="SourceGraphic" in2="BackgroundImageFix" result="shape"/>
<feGaussianBlur stdDeviation="0.3" result="effect1_foregroundBlur_18_25150"/>
</filter>
<linearGradient id="paint0_linear_18_25150" x1="16" y1="23.875" x2="15.1367" y2="23.875" gradientUnits="userSpaceOnUse">
<stop stop-color="#3C1681"/>
<stop offset="1" stop-color="#605482"/>
</linearGradient>
<linearGradient id="paint1_linear_18_25150" x1="20.9023" y1="20.7344" x2="19.8555" y2="21.4219" gradientUnits="userSpaceOnUse">
<stop stop-color="#5B4DA4"/>
<stop offset="1" stop-color="#423174"/>
</linearGradient>
<linearGradient id="paint2_linear_18_25150" x1="16.7773" y1="17.5157" x2="17.1367" y2="17.2969" gradientUnits="userSpaceOnUse">
<stop stop-color="#574C77"/>
<stop offset="1" stop-color="#574C77" stop-opacity="0"/>
</linearGradient>
<radialGradient id="paint3_radial_18_25150" cx="0" cy="0" r="1" gradientUnits="userSpaceOnUse" gradientTransform="translate(26.3945 28.9688) rotate(-171.754) scale(0.544694 0.435162)">
<stop offset="0.274224" stop-color="#604FA8"/>
<stop offset="1" stop-color="#604FA8" stop-opacity="0"/>
</radialGradient>
<linearGradient id="paint4_linear_18_25150" x1="17.2026" y1="15.4219" x2="17.2026" y2="17.2031" gradientUnits="userSpaceOnUse">
<stop offset="0.407499" stop-color="#1D0A4A"/>
<stop offset="1" stop-color="#1D0A4A" stop-opacity="0"/>
</linearGradient>
<linearGradient id="paint5_linear_18_25150" x1="11.4961" y1="23.0469" x2="10.0273" y2="22.1094" gradientUnits="userSpaceOnUse">
<stop stop-color="#5640A6"/>
<stop offset="0.944355" stop-color="#43356A"/>
</linearGradient>
<linearGradient id="paint6_linear_18_25150" x1="14.7973" y1="15.4375" x2="14.7973" y2="17.2188" gradientUnits="userSpaceOnUse">
<stop offset="0.407499" stop-color="#1D0A4A"/>
<stop offset="1" stop-color="#1D0A4A" stop-opacity="0"/>
</linearGradient>
<linearGradient id="paint7_linear_18_25150" x1="6.55859" y1="28.7813" x2="15.41" y2="15.6563" gradientUnits="userSpaceOnUse">
<stop offset="0.743203" stop-color="#6250A3"/>
<stop offset="1" stop-color="#6250A3" stop-opacity="0"/>
</linearGradient>
<linearGradient id="paint8_linear_18_25150" x1="25.6836" y1="11.5469" x2="24.4648" y2="14.7344" gradientUnits="userSpaceOnUse">
<stop stop-color="#C1C0C1"/>
<stop offset="1" stop-color="#9777B3"/>
</linearGradient>
<linearGradient id="paint9_linear_18_25150" x1="25.4023" y1="15.2344" x2="25.9492" y2="13.5938" gradientUnits="userSpaceOnUse">
<stop offset="0.0677859" stop-color="#864EB1"/>
<stop offset="1" stop-color="#987BB3" stop-opacity="0"/>
</linearGradient>
<linearGradient id="paint10_linear_18_25150" x1="20.2366" y1="12.3707" x2="21.4812" y2="12.7744" gradientUnits="userSpaceOnUse">
<stop offset="0.255535" stop-color="#734497"/>
<stop offset="1" stop-color="#734497" stop-opacity="0"/>
</linearGradient>
<linearGradient id="paint11_linear_18_25150" x1="29.4601" y1="11.2203" x2="27.8201" y2="15.8332" gradientUnits="userSpaceOnUse">
<stop offset="0.343021" stop-color="#7166B3"/>
<stop offset="1" stop-color="#503398"/>
</linearGradient>
<linearGradient id="paint12_linear_18_25150" x1="26.8555" y1="12.8907" x2="27.4317" y2="13.0388" gradientUnits="userSpaceOnUse">
<stop stop-color="#533A9A"/>
<stop offset="1" stop-color="#5D47A3" stop-opacity="0"/>
</linearGradient>
<radialGradient id="paint13_radial_18_25150" cx="0" cy="0" r="1" gradientUnits="userSpaceOnUse" gradientTransform="translate(29.5898 12.8438) rotate(109.312) scale(1.93712 0.266243)">
<stop offset="0.090566" stop-color="#7D72BE"/>
<stop offset="1" stop-color="#7D72BE" stop-opacity="0"/>
</radialGradient>
<linearGradient id="paint14_linear_18_25150" x1="13.9023" y1="7.20319" x2="12.7734" y2="10.9219" gradientUnits="userSpaceOnUse">
<stop stop-color="#C1C0C1"/>
<stop offset="1" stop-color="#9777B3"/>
</linearGradient>
<linearGradient id="paint15_linear_18_25150" x1="14.4023" y1="12.4063" x2="15.0742" y2="10.6407" gradientUnits="userSpaceOnUse">
<stop offset="0.179641" stop-color="#8E69B0"/>
<stop offset="1" stop-color="#987BB3" stop-opacity="0"/>
</linearGradient>
<radialGradient id="paint16_radial_18_25150" cx="0" cy="0" r="1" gradientUnits="userSpaceOnUse" gradientTransform="translate(0.6875 0.8125) rotate(90) scale(5.07812 2.25)">
<stop offset="0.621538" stop-color="#614F7B" stop-opacity="0"/>
<stop offset="0.92" stop-color="#614F7B"/>
</radialGradient>
<radialGradient id="paint17_radial_18_25150" cx="0" cy="0" r="1" gradientUnits="userSpaceOnUse" gradientTransform="translate(1.28125 1.82813) rotate(90) scale(2.14063 0.753183)">
<stop stop-color="#574775"/>
<stop offset="1" stop-color="#574775" stop-opacity="0"/>
</radialGradient>
<radialGradient id="paint18_radial_18_25150" cx="0" cy="0" r="1" gradientUnits="userSpaceOnUse" gradientTransform="translate(6.21484 5.64057) rotate(109.822) scale(2.85677 2.63799)">
<stop offset="0.223884" stop-color="#ADDEFF"/>
<stop offset="1" stop-color="#A2CFFB"/>
</radialGradient>
<linearGradient id="paint19_linear_18_25150" x1="9.72479" y1="3.01939" x2="7.37014" y2="9.5115" gradientUnits="userSpaceOnUse">
<stop offset="0.343021" stop-color="#7166B3"/>
<stop offset="1" stop-color="#503398"/>
</linearGradient>
<linearGradient id="paint20_linear_18_25150" x1="6.27734" y1="5.39066" x2="6.69922" y2="5.54691" gradientUnits="userSpaceOnUse">
<stop stop-color="#533A9A"/>
<stop offset="1" stop-color="#5D47A3" stop-opacity="0"/>
</linearGradient>
<linearGradient id="paint21_linear_18_25150" x1="6.32737" y1="9.5115" x2="6.76466" y2="8.46873" gradientUnits="userSpaceOnUse">
<stop stop-color="#7B64AE"/>
<stop offset="1" stop-color="#7B64AE" stop-opacity="0"/>
</linearGradient>
</defs>
</svg>

<svg width="32" height="32" fill="none" xmlns="http://www.w3.org/2000/svg"><path d="M16 16v12.984" stroke="url(#a)" stroke-width="1.4" stroke-linecap="round"/><path d="m16.59 15.922 9.203 13.11" stroke="url(#b)" stroke-width="1.4" stroke-linecap="round"/><path d="m16.59 15.922 9.203 13.11" stroke="url(#c)" stroke-width="1.4" stroke-linecap="round"/><path d="m16.59 15.922 9.203 13.11" stroke="url(#d)" stroke-width="1.4" stroke-linecap="round"/><path d="m16.59 15.922 9.203 13.11" stroke="url(#e)" stroke-width="1.4" stroke-linecap="round"/><path d="M15.41 15.938 6.207 29.047" stroke="url(#f)" stroke-width="1.4" stroke-linecap="round"/><path d="M15.41 15.938 6.207 29.047" stroke="url(#g)" stroke-width="1.4" stroke-linecap="round"/><g filter="url(#h)"><path d="m15.41 15.922-9.203 13.11" stroke="url(#i)" stroke-width=".4" stroke-linecap="round"/></g><path fill="#251350" d="M15.371 11.563h1.258v3.531h-1.258z"/><path d="M30.163 12.39a.75.75 0 0 0-.449-.96l-8.568-3.113-1.693 4.662 8.568 3.113a.75.75 0 0 0 .96-.45l1.182-3.252Z" fill="url(#j)"/><path d="M30.163 12.39a.75.75 0 0 0-.449-.96l-8.568-3.113-1.693 4.662 8.568 3.113a.75.75 0 0 0 .96-.45l1.182-3.252Z" fill="url(#k)"/><path d="M30.163 12.39a.75.75 0 0 0-.449-.96l-8.568-3.113-1.693 4.662 8.568 3.113a.75.75 0 0 0 .96-.45l1.182-3.252Z" fill="url(#l)"/><path d="m26.164 15.417 1.693-4.662 1.857.675a.75.75 0 0 1 .45.96l-1.182 3.253a.75.75 0 0 1-.961.449l-1.857-.675Z" fill="url(#m)"/><path d="m26.164 15.417 1.693-4.662 1.857.675a.75.75 0 0 1 .45.96l-1.182 3.253a.75.75 0 0 1-.961.449l-1.857-.675Z" fill="url(#n)"/><path d="m26.164 15.417 1.693-4.662 1.857.675a.75.75 0 0 1 .45.96l-1.182 3.253a.75.75 0 0 1-.961.449l-1.857-.675Z" fill="url(#o)"/><g filter="url(#p)"><path fill="#C9C2D2" d="m21.802 10.109 5.24 1.907-.27.74-5.24-1.908z"/></g><path d="M2.813 4.297a3.415 3.415 0 0 1 4.376-2.044L22.874 7.95a.1.1 0 0 1 .06.128L20.67 14.31a.1.1 0 0 1-.128.06L4.857 8.673a3.415 3.415 0 0 1-2.044-4.376Z" fill="url(#q)"/><path d="M2.813 4.297a3.415 3.415 0 0 1 4.376-2.044L22.874 7.95a.1.1 0 0 1 .06.128L20.67 14.31a.1.1 0 0 1-.128.06L4.857 8.673a3.415 3.415 0 0 1-2.044-4.376Z" fill="url(#r)"/><g filter="url(#s)"><rect width="2.234" height="5.398" rx="1.117" transform="matrix(0 -1 -1 0 18.7 16.438)" fill="#431670"/></g><rect width="2.234" height="5.398" rx="1.117" transform="matrix(0 -1 -1 0 18.7 16.438)" fill="url(#t)"/><rect width="2.234" height="5.398" rx="1.117" transform="matrix(0 -1 -1 0 18.7 16.438)" fill="url(#u)"/><g filter="url(#v)"><path fill="#C9C2D2" d="m9.733 5.143 12.284 4.472-.269.74L9.464 5.883z"/></g><g filter="url(#w)"><path d="M8.074 2.58 5.742 9l-.885-.327a3.415 3.415 0 1 1 2.332-6.42l.885.327Z" fill="url(#x)"/></g><path d="M10.762 3.55 7.488 2.362l-2.332 6.42 3.274 1.19 2.332-6.42Z" fill="url(#y)"/><path d="M10.762 3.55 7.488 2.362l-2.332 6.42 3.274 1.19 2.332-6.42Z" fill="url(#z)"/><path d="M10.762 3.55 7.488 2.362l-2.332 6.42 3.274 1.19 2.332-6.42Z" fill="url(#A)"/><g filter="url(#B)"><path fill="#7468B7" d="m7.232 4.094 2.7.983-.518 1.424-2.7-.983z"/></g><g filter="url(#C)"><path fill="#7266B6" d="m27.64 12.192 1.967.716-.384 1.055-1.967-.716z"/></g><defs><linearGradient id="a" x1="16" y1="23.875" x2="15.137" y2="23.875" gradientUnits="userSpaceOnUse"><stop stop-color="#3C1681"/><stop offset="1" stop-color="#605482"/></linearGradient><linearGradient id="b" x1="20.902" y1="20.734" x2="19.855" y2="21.422" gradientUnits="userSpaceOnUse"><stop stop-color="#5B4DA4"/><stop offset="1" stop-color="#423174"/></linearGradient><linearGradient id="c" x1="16.777" y1="17.516" x2="17.137" y2="17.297" gradientUnits="userSpaceOnUse"><stop stop-color="#574C77"/><stop offset="1" stop-color="#574C77" stop-opacity="0"/></linearGradient><linearGradient id="e" x1="17.203" y1="15.422" x2="17.203" y2="17.203" gradientUnits="userSpaceOnUse"><stop offset=".407" stop-color="#1D0A4A"/><stop offset="1" stop-color="#1D0A4A" stop-opacity="0"/></linearGradient><linearGradient id="f" x1="11.496" y1="23.047" x2="10.027" y2="22.109" gradientUnits="userSpaceOnUse"><stop stop-color="#5640A6"/><stop offset=".944" stop-color="#43356A"/></linearGradient><linearGradient id="g" x1="14.797" y1="15.438" x2="14.797" y2="17.219" gradientUnits="userSpaceOnUse"><stop offset=".407" stop-color="#1D0A4A"/><stop offset="1" stop-color="#1D0A4A" stop-opacity="0"/></linearGradient><linearGradient id="i" x1="6.559" y1="28.781" x2="15.41" y2="15.656" gradientUnits="userSpaceOnUse"><stop offset=".743" stop-color="#6250A3"/><stop offset="1" stop-color="#6250A3" stop-opacity="0"/></linearGradient><linearGradient id="j" x1="25.684" y1="11.547" x2="24.465" y2="14.734" gradientUnits="userSpaceOnUse"><stop stop-color="#C1C0C1"/><stop offset="1" stop-color="#9777B3"/></linearGradient><linearGradient id="k" x1="25.402" y1="15.234" x2="25.949" y2="13.594" gradientUnits="userSpaceOnUse"><stop offset=".068" stop-color="#864EB1"/><stop offset="1" stop-color="#987BB3" stop-opacity="0"/></linearGradient><linearGradient id="l" x1="20.237" y1="12.371" x2="21.481" y2="12.774" gradientUnits="userSpaceOnUse"><stop offset=".256" stop-color="#734497"/><stop offset="1" stop-color="#734497" stop-opacity="0"/></linearGradient><linearGradient id="m" x1="29.46" y1="11.22" x2="27.82" y2="15.833" gradientUnits="userSpaceOnUse"><stop offset=".343" stop-color="#7166B3"/><stop offset="1" stop-color="#503398"/></linearGradient><linearGradient id="n" x1="26.855" y1="12.891" x2="27.432" y2="13.039" gradientUnits="userSpaceOnUse"><stop stop-color="#533A9A"/><stop offset="1" stop-color="#5D47A3" stop-opacity="0"/></linearGradient><linearGradient id="q" x1="13.902" y1="7.203" x2="12.773" y2="10.922" gradientUnits="userSpaceOnUse"><stop stop-color="#C1C0C1"/><stop offset="1" stop-color="#9777B3"/></linearGradient><linearGradient id="r" x1="14.402" y1="12.406" x2="15.074" y2="10.641" gradientUnits="userSpaceOnUse"><stop offset=".18" stop-color="#8E69B0"/><stop offset="1" stop-color="#987BB3" stop-opacity="0"/></linearGradient><linearGradient id="y" x1="9.725" y1="3.019" x2="7.37" y2="9.511" gradientUnits="userSpaceOnUse"><stop offset=".343" stop-color="#7166B3"/><stop offset="1" stop-color="#503398"/></linearGradient><linearGradient id="z" x1="6.277" y1="5.391" x2="6.699" y2="5.547" gradientUnits="userSpaceOnUse"><stop stop-color="#533A9A"/><stop offset="1" stop-color="#5D47A3" stop-opacity="0"/></linearGradient><linearGradient id="A" x1="6.327" y1="9.511" x2="6.765" y2="8.469" gradientUnits="userSpaceOnUse"><stop stop-color="#7B64AE"/><stop offset="1" stop-color="#7B64AE" stop-opacity="0"/></linearGradient><filter id="h" x="5.607" y="15.322" width="10.403" height="14.309" filterUnits="userSpaceOnUse" color-interpolation-filters="sRGB"><feFlood flood-opacity="0" result="BackgroundImageFix"/><feBlend in="SourceGraphic" in2="BackgroundImageFix" result="shape"/><feGaussianBlur stdDeviation=".2" result="effect1_foregroundBlur_18_25150"/></filter><filter id="p" x="20.533" y="9.109" width="7.509" height="4.647" filterUnits="userSpaceOnUse" color-interpolation-filters="sRGB"><feFlood flood-opacity="0" result="BackgroundImageFix"/><feBlend in="SourceGraphic" in2="BackgroundImageFix" result="shape"/><feGaussianBlur stdDeviation=".5" result="effect1_foregroundBlur_18_25150"/></filter><filter id="s" x="12.801" y="14.203" width="5.898" height="2.734" filterUnits="userSpaceOnUse" color-interpolation-filters="sRGB"><feFlood flood-opacity="0" result="BackgroundImageFix"/><feBlend in="SourceGraphic" in2="BackgroundImageFix" result="shape"/><feColorMatrix in="SourceAlpha" values="0 0 0 0 0 0 0 0 0 0 0 0 0 0 0 0 0 0 127 0" result="hardAlpha"/><feOffset dx="-.5" dy=".5"/><feGaussianBlur stdDeviation=".5"/><feComposite in2="hardAlpha" operator="arithmetic" k2="-1" k3="1"/><feColorMatrix values="0 0 0 0 0.188235 0 0 0 0 0.129412 0 0 0 0 0.309804 0 0 0 1 0"/><feBlend in2="shape" result="effect1_innerShadow_18_25150"/></filter><filter id="v" x="8.464" y="4.143" width="14.553" height="7.212" filterUnits="userSpaceOnUse" color-interpolation-filters="sRGB"><feFlood flood-opacity="0" result="BackgroundImageFix"/><feBlend in="SourceGraphic" in2="BackgroundImageFix" result="shape"/><feGaussianBlur stdDeviation=".5" result="effect1_foregroundBlur_18_25150"/></filter><filter id="w" x="2.607" y="2.047" width="5.468" height="6.953" filterUnits="userSpaceOnUse" color-interpolation-filters="sRGB"><feFlood flood-opacity="0" result="BackgroundImageFix"/><feBlend in="SourceGraphic" in2="BackgroundImageFix" result="shape"/><feColorMatrix in="SourceAlpha" values="0 0 0 0 0 0 0 0 0 0 0 0 0 0 0 0 0 0 127 0" result="hardAlpha"/><feOffset/><feGaussianBlur stdDeviation=".25"/><feComposite in2="hardAlpha" operator="arithmetic" k2="-1" k3="1"/><feColorMatrix values="0 0 0 0 0.713726 0 0 0 0 0.780392 0 0 0 0 0.85098 0 0 0 1 0"/><feBlend in2="shape" result="effect1_innerShadow_18_25150"/></filter><filter id="B" x="6.114" y="3.494" width="4.419" height="3.607" filterUnits="userSpaceOnUse" color-interpolation-filters="sRGB"><feFlood flood-opacity="0" result="BackgroundImageFix"/><feBlend in="SourceGraphic" in2="BackgroundImageFix" result="shape"/><feGaussianBlur stdDeviation=".3" result="effect1_foregroundBlur_18_25150"/></filter><filter id="C" x="26.655" y="11.592" width="3.551" height="2.972" filterUnits="userSpaceOnUse" color-interpolation-filters="sRGB"><feFlood flood-opacity="0" result="BackgroundImageFix"/><feBlend in="SourceGraphic" in2="BackgroundImageFix" result="shape"/><feGaussianBlur stdDeviation=".3" result="effect1_foregroundBlur_18_25150"/></filter><radialGradient id="d" cx="0" cy="0" r="1" gradientUnits="userSpaceOnUse" gradientTransform="matrix(-.53906 -.07812 .06241 -.43066 26.395 28.969)"><stop offset=".274" stop-color="#604FA8"/><stop offset="1" stop-color="#604FA8" stop-opacity="0"/></radialGradient><radialGradient id="o" cx="0" cy="0" r="1" gradientUnits="userSpaceOnUse" gradientTransform="rotate(109.312 10.24 16.914) scale(1.93712 .26624)"><stop offset=".091" stop-color="#7D72BE"/><stop offset="1" stop-color="#7D72BE" stop-opacity="0"/></radialGradient><radialGradient id="t" cx="0" cy="0" r="1" gradientUnits="userSpaceOnUse" gradientTransform="matrix(0 5.07812 -2.25 0 .688 .813)"><stop offset=".622" stop-color="#614F7B" stop-opacity="0"/><stop offset=".92" stop-color="#614F7B"/></radialGradient><radialGradient id="u" cx="0" cy="0" r="1" gradientUnits="userSpaceOnUse" gradientTransform="matrix(0 2.14063 -.75318 0 1.281 1.828)"><stop stop-color="#574775"/><stop offset="1" stop-color="#574775" stop-opacity="0"/></radialGradient><radialGradient id="x" cx="0" cy="0" r="1" gradientUnits="userSpaceOnUse" gradientTransform="matrix(-.96873 2.6875 -2.4817 -.89454 6.215 5.64)"><stop offset=".224" stop-color="#ADDEFF"/><stop offset="1" stop-color="#A2CFFB"/></radialGradient></defs></svg>
